X:0734
M:6/8
L:1/8
Q:3/8=80 "Slow"
K:G
     G3  TA3 |BcB  TAGA|BAG  GED|DEG  G2    :|
     G3  TA3 |B>cB TAGA|B>AG GED|DEG  G2    :|

